packages/storefront-lwc/src/assets/fonts/flags/1x1/by.svg

<svg height="512" width="512" xmlns="http://www.w3.org/2000/svg" xmlns:xlink="http://www.w3.org/1999/xlink"><clipPath id="a"><path d="m0 0h496.06v496.06h-496.06z"/></clipPath><g clip-path="url(#a)" fill-rule="evenodd" transform="scale(1.032)"><path d="m0 0h992.13v329.53h-992.13z" fill="#b20000"/><path d="m0 329.53h992.13v166.54h-992.13z" fill="#429f00"/><path d="m0 0h109.84v496.06h-109.84z" fill="#fff"/><g fill="#b20000" stroke-width="1pt"><path d="m5.23 8.402h5.23v8.41h-5.23zm15.693 0h15.692v8.41h-15.692zm5.225-8.412h5.23v8.41h-5.23zm26.159 0h5.23v8.41h-5.23zm20.917 8.412h15.692v8.41h-15.692zm5.241-8.412h5.23v8.41h-5.23z"/><path d="m15.697 16.81h10.463v8.41h-10.464zm15.693 0h10.46v8.41h-10.46zm36.61 0h10.46v8.41h-10.46zm15.69 0h10.463v8.41h-10.463zm-73.234 8.41h10.462v8.408h-10.462zm26.159 0h10.46v8.408h-10.46zm26.158 0h10.462v8.408h-10.462zm26.143 0h10.462v8.408h-10.462zm10.467-16.818h5.23v8.41h-5.23zm-94.153 25.226h10.462v8.408h-10.46zm36.61 0h10.462v8.408h-10.462zm52.317 0h10.462v8.408h-10.463zm-83.701 25.222h10.462v8.41h-10.462zm5.241 8.41h10.463v8.407h-10.464zm20.918-8.41h10.46v8.41h-10.46zm-5.225 8.41h10.46v8.407h-10.46zm-10.467 8.407h15.692v8.408h-15.692z"/><path d="m26.148 84.074h5.23v8.41h-5.23zm36.625-25.222h10.462v8.408h-10.462zm5.227 8.408h10.46v8.407h-10.46zm20.916-8.41h10.462v8.41h-10.462zm-5.226 8.41h10.463v8.407h-10.463zm-10.466 8.407h15.692v8.408h-15.692z"/><path d="m78.465 84.074h5.23v8.41h-5.23zm-26.158-8.407h5.23v8.408h-5.23zm-52.302 0h5.23v8.408h-5.23zm104.603 0h5.23v8.408h-5.23zm-78.46 42.04h5.23v8.408h-5.23z"/><path d="m20.923 126.114h15.692v8.408h-15.692zm-5.226 8.408h26.153v8.408h-26.152zm62.768-16.815h5.23v8.408h-5.23z"/><path d="m73.224 126.114h15.692v8.408h-15.692zm-5.224 8.408h26.153v8.408h-26.153zm5.224 42.04h26.154v8.408h-26.154zm-10.451-33.632h36.614v8.41h-36.614zm-52.317 0h36.614v8.41h-36.613zm5.241 42.04h15.693v8.408h-15.694zm-5.241-8.408h26.154v8.408h-26.154zm73.234-16.816h26.155v8.408h-26.155zm-5.225 25.224h15.692v8.408h-15.692z"/><path d="m20.923 193.377h5.23v8.41h-5.23zm62.767 0h5.23v8.41h-5.23zm-83.685-33.631h26.155v8.408h-26.156zm47.075 16.816h15.693v8.408h-15.693zm5.227 8.408h5.23v8.408h-5.23zm-15.692-25.224h36.615v8.408h-36.616zm20.917-126.118h10.462v8.408h-10.462z"/><path d="m47.08 42.035h15.693v8.408h-15.693zm-5.24 8.408h10.462v8.41h-10.462zm15.692 0h10.462v8.41h-10.462zm-57.527-8.408h10.462v8.408h-10.462zm5.225 8.408h10.462v8.41h-10.46zm94.153-8.408h10.462v8.408h-10.462zm-5.226 8.408h10.462v8.41h-10.463zm-94.152 75.671h5.23v8.408h-5.23zm104.603 0h5.23v8.408h-5.23zm-57.528 67.263h15.693v8.41h-15.693z"/><path d="m41.84 201.786h10.462v8.408h-10.462zm15.692 0h10.462v8.408h-10.462zm-20.917 8.408h10.46v8.408h-10.46zm26.158 0h10.462v8.408h-10.462z"/><path d="m31.39 218.6h10.46v8.41h-10.46zm36.61 0h10.46v8.41h-10.46zm-41.852 8.41h10.462v8.408h-10.462zm47.076 0h10.462v8.408h-10.462z"/><path d="m15.697 235.417h15.693v8.408h-15.694zm62.768 0h15.692v8.408h-15.692z"/><path d="m88.916 227.01h10.462v8.408h-10.462zm5.241-8.41h10.462v8.41h-10.463z"/><path d="m99.383 210.194h10.462v8.408h-10.462zm-88.927 16.816h10.462v8.408h-10.462zm-5.226-8.41h10.462v8.41h-10.46z"/><path d="m.005 210.194h10.462v8.408h-10.462zm20.918 33.631h5.23v8.408h-5.23zm62.767 0h5.23v8.408h-5.23zm-31.383-25.225h5.23v8.41h-5.23zm-15.692 25.225h5.23v8.408h-5.23zm31.385 0h5.23v8.408h-5.23zm-15.693 0h5.23v8.408h-5.23zm-52.302 0h5.23v8.408h-5.23zm104.603 0h5.23v8.408h-5.23zm-52.301-117.711h5.23v8.408h-5.23zm-26.159-84.079h5.23v8.408h-5.23zm52.317 0h5.23v8.408h-5.23zm-31.385 58.855h15.693v8.41h-15.693z"/><path d="m36.615 109.298h15.692v8.41h-15.692z"/><path d="m41.84 117.707h5.23v8.408h-5.23zm-10.45-16.817h10.46v8.41h-10.46z"/><path d="m36.615 92.483h15.692v8.408h-15.692z"/><path d="m41.84 84.074h5.23v8.41h-5.23zm15.692 8.409h15.692v8.408h-15.692z"/><path d="m62.773 84.074h5.23v8.41h-5.23zm5.227 16.816h10.46v8.41h-10.46z"/><path d="m57.532 109.298h15.692v8.41h-15.692z"/><path d="m62.773 117.707h5.23v8.408h-5.23zm20.917-16.817h10.463v8.41h-10.463z"/><path d="m88.916 92.483h15.692v8.408h-15.692z"/><path d="m99.383 100.89h10.462v8.41h-10.462z"/><path d="m88.916 109.298h15.692v8.41h-15.692z"/><path d="m94.157 117.707h5.23v8.408h-5.23zm0-33.633h5.23v8.41h-5.23zm-94.152 16.816h10.462v8.41h-10.462z"/><path d="m5.23 92.483h15.693v8.408h-15.693z"/><path d="m15.697 100.89h10.463v8.41h-10.464z"/><path d="m5.23 109.298h15.693v8.41h-15.693z"/><path d="m10.456 117.707h5.23v8.408h-5.23zm0-33.633h5.23v8.41h-5.23zm-5.226 67.264h20.923v8.408h-20.923zm26.16 0h20.92v8.408h-20.92zm26.142 0h20.923v8.408h-20.923zm26.158 0h20.923v8.408h-20.923zm-41.85 16.815h26.154v8.41h-26.154zm-36.61 0h26.154v8.41h-26.154zm73.235 0h26.154v8.41h-26.155zm26.143 33.633h5.23v8.408h-5.23zm-104.603 0h5.23v8.408h-5.23zm5.225 285.871h5.23v-8.408h-5.23zm15.693 0h15.692v-8.408h-15.692z"/><path d="m26.148 496.057h5.23v-8.408h-5.23zm26.159 0h5.23v-8.408h-5.23zm20.917-8.4h15.692v-8.408h-15.692z"/><path d="m78.465 496.057h5.23v-8.408h-5.23zm-62.768-16.812h10.463v-8.408h-10.464zm15.693 0h10.46v-8.408h-10.46zm36.61 0h10.46v-8.408h-10.46zm15.69 0h10.463v-8.408h-10.463zm-47.075-8.412h10.46v-8.408h-10.46zm26.158 0h10.462v-8.408h-10.462zm26.143 0h10.462v-8.408h-10.462zm10.467 16.824h5.23v-8.408h-5.23zm-94.153-25.224h10.462v-8.408h-10.46z"/><path d="m41.84 462.433h10.462v-8.408h-10.462zm52.317 0h10.462v-8.408h-10.463zm-83.701-25.223h10.462v-8.41h-10.462zm5.241-8.413h10.463v-8.408h-10.464zm20.918 8.413h10.46v-8.41h-10.46zm-5.225-8.413h10.46v-8.408h-10.46zm-10.467-8.412h15.692v-8.408h-15.692z"/><path d="m26.148 411.985h5.23v-8.408h-5.23zm36.625 25.225h10.462v-8.41h-10.462zm5.227-8.413h10.46v-8.408h-10.46zm20.916 8.413h10.462v-8.41h-10.462zm-5.226-8.413h10.463v-8.408h-10.463zm-10.466-8.412h15.692v-8.408h-15.692z"/><path d="m78.465 411.985h5.23v-8.408h-5.23zm-26.158 8.4h5.23v-8.408h-5.23zm-52.302 0h5.23v-8.408h-5.23zm104.603 0h5.23v-8.408h-5.23zm-78.46-42.035h5.23v-8.41h-5.23z"/><path d="m20.923 369.95h15.692v-8.41h-15.692zm-5.226-8.413h26.153v-8.408h-26.152zm62.768 16.813h5.23v-8.41h-5.23z"/><path d="m73.224 369.95h15.692v-8.41h-15.692zm-5.224-8.413h26.153v-8.408h-26.153zm5.224-42.035h26.154v-8.41h-26.154zm-10.451 33.624h36.614v-8.41h-36.614zm-52.317 0h36.614v-8.41h-36.613zm5.241-42.036h15.693v-8.412h-15.694zm-5.241 8.412h26.154v-8.41h-26.154zm73.234 16.812h26.155v-8.41h-26.155zm-5.225-25.224h15.692v-8.41h-15.692zm-78.46 25.224h26.155v-8.41h-26.156zm47.075-16.812h15.693v-8.41h-15.693zm5.227-8.412h5.23v-8.41h-5.23zm-15.692 25.224h36.615v-8.41h-36.616zm20.917 126.119h10.462v-8.408h-10.462zm-10.452-8.413h15.693v-8.407h-15.693zm-5.24-8.41h10.462v-8.41h-10.462zm15.692 0h10.462v-8.41h-10.462zm-57.527 8.41h10.462v-8.407h-10.462zm5.225-8.41h10.462v-8.41h-10.46zm94.153 8.41h10.462v-8.407h-10.462zm-5.226-8.41h10.462v-8.41h-10.463zm-94.152-75.66h5.23v-8.41h-5.23zm104.603 0h5.23v-8.41h-5.23zm-62.768-75.672h10.462v-8.41h-10.462zm15.692 0h10.462v-8.41h-10.462zm-20.917-8.412h10.46v-8.41h-10.46zm26.158 0h10.462v-8.41h-10.462zm-31.383-8.412h10.46v-8.41h-10.46zm36.61 0h10.46v-8.41h-10.46z"/><path d="m26.148 269.054h10.462v-8.41h-10.462zm47.076 0h10.462v-8.41h-10.462zm-57.527-8.412h15.693v-8.41h-15.694zm62.768 0h15.692v-8.41h-15.692zm10.451 8.412h10.462v-8.41h-10.462z"/><path d="m94.157 277.454h10.462v-8.41h-10.463zm5.226 8.412h10.462v-8.41h-10.462zm-88.927-16.812h10.462v-8.41h-10.462z"/><path d="m5.23 277.454h10.462v-8.41h-10.46zm-5.225 8.412h10.462v-8.41h-10.462zm20.918-33.633h5.23v-8.408h-5.23zm31.384 25.221h5.23v-8.41h-5.23zm0 92.496h5.23v-8.41h-5.23zm-26.159 84.07h5.23v-8.407h-5.23zm52.317 0h5.23v-8.407h-5.23zm-31.385-58.847h15.693v-8.408h-15.693zm-10.465-8.413h15.692v-8.407h-15.692zm5.225-8.41h5.23v-8.41h-5.23zm-10.45 16.823h10.46v-8.408h-10.46z"/><path d="m36.615 403.573h15.692v-8.408h-15.692zm5.225 8.412h5.23v-8.408h-5.23zm15.692-8.412h15.692v-8.408h-15.692zm5.241 8.412h5.23v-8.408h-5.23z"/><path d="m68 395.173h10.46v-8.408h-10.46zm-10.468-8.413h15.692v-8.407h-15.692zm5.241-8.41h5.23v-8.41h-5.23zm20.917 16.823h10.463v-8.408h-10.463z"/><path d="m88.916 403.573h15.692v-8.408h-15.692z"/><path d="m99.383 395.173h10.462v-8.408h-10.462zm-10.467-8.413h15.692v-8.407h-15.692zm5.241-8.41h5.23v-8.41h-5.23zm0 33.635h5.23v-8.408h-5.23zm-94.152-16.812h10.462v-8.408h-10.462z"/><path d="m5.23 403.573h15.693v-8.408h-15.693z"/><path d="m15.697 395.173h10.463v-8.408h-10.464zm-10.467-8.413h15.693v-8.407h-15.693zm5.226-8.41h5.23v-8.41h-5.23zm0 33.635h5.23v-8.408h-5.23zm-5.226-67.26h20.923v-8.408h-20.923zm26.16 0h20.92v-8.408h-20.92zm26.142 0h20.923v-8.408h-20.923zm26.158 0h20.923v-8.408h-20.923zm-41.85-16.823h26.154v-8.41h-26.154zm-36.61 0h26.154v-8.41h-26.154zm73.235 0h26.154v-8.41h-26.155zm26.143-33.624h5.23v-8.41h-5.23zm-104.603 0h5.23v-8.41h-5.23zm47.075-42.045h5.23v8.41h-5.23zm10.452 0h5.23v8.41h-5.23zm0-16.816h5.23v8.408h-5.23zm-10.452 0h5.23v8.408h-5.23zm-36.624 227.016h10.462v8.41h-10.462zm73.234-159.755h5.23v-8.41h-5.23zm-62.767 0h5.23v-8.41h-5.23zm26.155-8.404h15.692v8.407h-15.692z"/></g></g></svg>

<svg xmlns="http://www.w3.org/2000/svg" height="512" width="512" id="flag-icon-css-by">
  <defs>
    <clipPath id="a">
      <path fill-opacity=".67" d="M0 0h496.06v496.06H0z"/>
    </clipPath>
  </defs>
  <g fill-rule="evenodd" clip-path="url(#a)" transform="scale(1.032)">
    <path fill="#b20000" d="M0 0h992.13v329.53H0z"/>
    <path fill="#429f00" d="M0 329.53h992.13v166.54H0z"/>
    <path fill="#fff" d="M0 0h109.84v496.06H0z"/>
    <g stroke-width="1pt" fill="#b20000">
      <path d="M5.23 8.402h5.23v8.41H5.23zm15.693 0h15.692v8.41H20.923zM26.148-.01h5.23V8.4h-5.23zm26.159 0h5.23V8.4h-5.23zm20.917 8.412h15.692v8.41H73.224zM78.465-.01h5.23V8.4h-5.23z"/>
      <path d="M15.697 16.81H26.16v8.41H15.696zm15.693 0h10.46v8.41H31.39zm36.61 0h10.46v8.41H68zm15.69 0h10.463v8.41H83.69zm-73.234 8.41h10.462v8.408H10.456zm26.159 0h10.46v8.408h-10.46zm26.158 0h10.462v8.408H62.773zm26.143 0h10.462v8.408H88.916zM99.383 8.402h5.23v8.41h-5.23zM5.23 33.628h10.462v8.408H5.232zm36.61 0h10.462v8.408H41.84zm52.317 0h10.462v8.408H94.156zM10.456 58.85h10.462v8.41H10.456zm5.241 8.41H26.16v8.407H15.696zm20.918-8.41h10.46v8.41h-10.46zm-5.225 8.41h10.46v8.407H31.39zm-10.467 8.407h15.692v8.408H20.923z"/>
      <path d="M26.148 84.074h5.23v8.41h-5.23zm36.625-25.222h10.462v8.408H62.773zM68 67.26h10.46v8.407H68zm20.916-8.41h10.462v8.41H88.916zm-5.226 8.41h10.463v8.407H83.69zm-10.466 8.407h15.692v8.408H73.224z"/>
      <path d="M78.465 84.074h5.23v8.41h-5.23zm-26.158-8.407h5.23v8.408h-5.23zm-52.302 0h5.23v8.408H.005zm104.603 0h5.23v8.408h-5.23zm-78.46 42.04h5.23v8.408h-5.23z"/>
      <path d="M20.923 126.114h15.692v8.408H20.923zm-5.226 8.408H41.85v8.408H15.698zm62.768-16.815h5.23v8.408h-5.23z"/>
      <path d="M73.224 126.114h15.692v8.408H73.224zM68 134.522h26.153v8.408H68zm5.224 42.04h26.154v8.408H73.224zM62.773 142.93h36.614v8.41H62.773zm-52.317 0H47.07v8.41H10.457zm5.241 42.04H31.39v8.408H15.696zm-5.241-8.408H36.61v8.408H10.456zm73.234-16.816h26.155v8.408H83.69zm-5.225 25.224h15.692v8.408H78.465z"/>
      <path d="M20.923 193.377h5.23v8.41h-5.23zm62.767 0h5.23v8.41h-5.23zM.005 159.746H26.16v8.408H.004zm47.075 16.816h15.693v8.408H47.08zm5.227 8.408h5.23v8.408h-5.23zm-15.692-25.224H73.23v8.408H36.614zM57.532 33.628h10.462v8.408H57.532z"/>
      <path d="M47.08 42.035h15.693v8.408H47.08zm-5.24 8.408h10.462v8.41H41.84zm15.692 0h10.462v8.41H57.532zM.005 42.035h10.462v8.408H.005zm5.225 8.408h10.462v8.41H5.232zm94.153-8.408h10.462v8.408H99.383zm-5.226 8.408h10.462v8.41H94.156zM.005 126.114h5.23v8.408H.005zm104.603 0h5.23v8.408h-5.23zM47.08 193.377h15.693v8.41H47.08z"/>
      <path d="M41.84 201.786h10.462v8.408H41.84zm15.692 0h10.462v8.408H57.532zm-20.917 8.408h10.46v8.408h-10.46zm26.158 0h10.462v8.408H62.773z"/>
      <path d="M31.39 218.6h10.46v8.41H31.39zm36.61 0h10.46v8.41H68zm-41.852 8.41H36.61v8.408H26.148zm47.076 0h10.462v8.408H73.224z"/>
      <path d="M15.697 235.417H31.39v8.408H15.696zm62.768 0h15.692v8.408H78.465z"/>
      <path d="M88.916 227.01h10.462v8.408H88.916zm5.241-8.41h10.462v8.41H94.156z"/>
      <path d="M99.383 210.194h10.462v8.408H99.383zM10.456 227.01h10.462v8.408H10.456zM5.23 218.6h10.462v8.41H5.232z"/>
      <path d="M.005 210.194h10.462v8.408H.005zm20.918 33.631h5.23v8.408h-5.23zm62.767 0h5.23v8.408h-5.23zM52.307 218.6h5.23v8.41h-5.23zm-15.692 25.225h5.23v8.408h-5.23zm31.385 0h5.23v8.408H68zm-15.693 0h5.23v8.408h-5.23zm-52.302 0h5.23v8.408H.005zm104.603 0h5.23v8.408h-5.23zM52.307 126.114h5.23v8.408h-5.23zM26.148 42.035h5.23v8.408h-5.23zm52.317 0h5.23v8.408h-5.23zM47.08 100.89h15.693v8.41H47.08z"/>
      <path d="M36.615 109.298h15.692v8.41H36.615z"/>
      <path d="M41.84 117.707h5.23v8.408h-5.23zM31.39 100.89h10.46v8.41H31.39z"/>
      <path d="M36.615 92.483h15.692v8.408H36.615z"/>
      <path d="M41.84 84.074h5.23v8.41h-5.23zm15.692 8.409h15.692v8.408H57.532z"/>
      <path d="M62.773 84.074h5.23v8.41h-5.23zM68 100.89h10.46v8.41H68z"/>
      <path d="M57.532 109.298h15.692v8.41H57.532z"/>
      <path d="M62.773 117.707h5.23v8.408h-5.23zM83.69 100.89h10.463v8.41H83.69z"/>
      <path d="M88.916 92.483h15.692v8.408H88.916z"/>
      <path d="M99.383 100.89h10.462v8.41H99.383z"/>
      <path d="M88.916 109.298h15.692v8.41H88.916z"/>
      <path d="M94.157 117.707h5.23v8.408h-5.23zm0-33.633h5.23v8.41h-5.23zM.005 100.89h10.462v8.41H.005z"/>
      <path d="M5.23 92.483h15.693v8.408H5.23z"/>
      <path d="M15.697 100.89H26.16v8.41H15.696z"/>
      <path d="M5.23 109.298h15.693v8.41H5.23z"/>
      <path d="M10.456 117.707h5.23v8.408h-5.23zm0-33.633h5.23v8.41h-5.23zM5.23 151.338h20.923v8.408H5.23zm26.16 0h20.92v8.408H31.39zm26.142 0h20.923v8.408H57.532zm26.158 0h20.923v8.408H83.69zm-41.85 16.815h26.154v8.41H41.84zm-36.61 0h26.154v8.41H5.23zm73.235 0h26.154v8.41H78.464zm26.143 33.633h5.23v8.408h-5.23zm-104.603 0h5.23v8.408H.005zM5.23 487.657h5.23v-8.408H5.23zm15.693 0h15.692v-8.408H20.923z"/>
      <path d="M26.148 496.057h5.23v-8.408h-5.23zm26.159 0h5.23v-8.408h-5.23zm20.917-8.4h15.692v-8.408H73.224z"/>
      <path d="M78.465 496.057h5.23v-8.408h-5.23zm-62.768-16.812H26.16v-8.408H15.696zm15.693 0h10.46v-8.408H31.39zm36.61 0h10.46v-8.408H68zm15.69 0h10.463v-8.408H83.69zm-47.075-8.412h10.46v-8.408h-10.46zm26.158 0h10.462v-8.408H62.773zm26.143 0h10.462v-8.408H88.916zm10.467 16.824h5.23v-8.408h-5.23zM5.23 462.433h10.462v-8.408H5.232z"/>
      <path d="M41.84 462.433h10.462v-8.408H41.84zm52.317 0h10.462v-8.408H94.156zM10.456 437.21h10.462v-8.41H10.456zm5.241-8.413H26.16v-8.408H15.696zm20.918 8.413h10.46v-8.41h-10.46zm-5.225-8.413h10.46v-8.408H31.39zm-10.467-8.412h15.692v-8.408H20.923z"/>
      <path d="M26.148 411.985h5.23v-8.408h-5.23zm36.625 25.225h10.462v-8.41H62.773zM68 428.797h10.46v-8.408H68zm20.916 8.413h10.462v-8.41H88.916zm-5.226-8.413h10.463v-8.408H83.69zm-10.466-8.412h15.692v-8.408H73.224z"/>
      <path d="M78.465 411.985h5.23v-8.408h-5.23zm-26.158 8.4h5.23v-8.408h-5.23zm-52.302 0h5.23v-8.408H.005zm104.603 0h5.23v-8.408h-5.23zm-78.46-42.035h5.23v-8.41h-5.23z"/>
      <path d="M20.923 369.95h15.692v-8.41H20.923zm-5.226-8.413H41.85v-8.408H15.698zm62.768 16.813h5.23v-8.41h-5.23z"/>
      <path d="M73.224 369.95h15.692v-8.41H73.224zM68 361.537h26.153v-8.408H68zm5.224-42.035h26.154v-8.41H73.224zm-10.451 33.624h36.614v-8.41H62.773zm-52.317 0H47.07v-8.41H10.457zm5.241-42.036H31.39v-8.412H15.696zm-5.241 8.412H36.61v-8.41H10.456zm73.234 16.812h26.155v-8.41H83.69zm-5.225-25.224h15.692v-8.41H78.465zM.005 336.314H26.16v-8.41H.004zm47.075-16.812h15.693v-8.41H47.08zm5.227-8.412h5.23v-8.41h-5.23zm-15.692 25.224H73.23v-8.41H36.614zm20.917 126.119h10.462v-8.408H57.532zM47.08 454.02h15.693v-8.407H47.08zm-5.24-8.41h10.462v-8.41H41.84zm15.692 0h10.462v-8.41H57.532zM.005 454.02h10.462v-8.407H.005zm5.225-8.41h10.462v-8.41H5.232zm94.153 8.41h10.462v-8.407H99.383zm-5.226-8.41h10.462v-8.41H94.156zM.005 369.95h5.23v-8.41H.005zm104.603 0h5.23v-8.41h-5.23zM41.84 294.278h10.462v-8.41H41.84zm15.692 0h10.462v-8.41H57.532zm-20.917-8.412h10.46v-8.41h-10.46zm26.158 0h10.462v-8.41H62.773zm-31.383-8.412h10.46v-8.41H31.39zm36.61 0h10.46v-8.41H68z"/>
      <path d="M26.148 269.054H36.61v-8.41H26.148zm47.076 0h10.462v-8.41H73.224zm-57.527-8.412H31.39v-8.41H15.696zm62.768 0h15.692v-8.41H78.465zm10.451 8.412h10.462v-8.41H88.916z"/>
      <path d="M94.157 277.454h10.462v-8.41H94.156zm5.226 8.412h10.462v-8.41H99.383zm-88.927-16.812h10.462v-8.41H10.456z"/>
      <path d="M5.23 277.454h10.462v-8.41H5.232zm-5.225 8.412h10.462v-8.41H.005zm20.918-33.633h5.23v-8.408h-5.23zm31.384 25.221h5.23v-8.41h-5.23zm0 92.496h5.23v-8.41h-5.23zm-26.159 84.07h5.23v-8.407h-5.23zm52.317 0h5.23v-8.407h-5.23zM47.08 395.173h15.693v-8.408H47.08zm-10.465-8.413h15.692v-8.407H36.615zm5.225-8.41h5.23v-8.41h-5.23zm-10.45 16.823h10.46v-8.408H31.39z"/>
      <path d="M36.615 403.573h15.692v-8.408H36.615zm5.225 8.412h5.23v-8.408h-5.23zm15.692-8.412h15.692v-8.408H57.532zm5.241 8.412h5.23v-8.408h-5.23z"/>
      <path d="M68 395.173h10.46v-8.408H68zm-10.468-8.413h15.692v-8.407H57.532zm5.241-8.41h5.23v-8.41h-5.23zm20.917 16.823h10.463v-8.408H83.69z"/>
      <path d="M88.916 403.573h15.692v-8.408H88.916z"/>
      <path d="M99.383 395.173h10.462v-8.408H99.383zm-10.467-8.413h15.692v-8.407H88.916zm5.241-8.41h5.23v-8.41h-5.23zm0 33.635h5.23v-8.408h-5.23zM.005 395.173h10.462v-8.408H.005z"/>
      <path d="M5.23 403.573h15.693v-8.408H5.23z"/>
      <path d="M15.697 395.173H26.16v-8.408H15.696zM5.23 386.76h15.693v-8.407H5.23zm5.226-8.41h5.23v-8.41h-5.23zm0 33.635h5.23v-8.408h-5.23zm-5.226-67.26h20.923v-8.408H5.23zm26.16 0h20.92v-8.408H31.39zm26.142 0h20.923v-8.408H57.532zm26.158 0h20.923v-8.408H83.69zm-41.85-16.823h26.154v-8.41H41.84zm-36.61 0h26.154v-8.41H5.23zm73.235 0h26.154v-8.41H78.464zm26.143-33.624h5.23v-8.41h-5.23zm-104.603 0h5.23v-8.41H.005zm47.075-42.045h5.23v8.41h-5.23zm10.452 0h5.23v8.41h-5.23zm0-16.816h5.23v8.408h-5.23zm-10.452 0h5.23v8.408h-5.23zM10.456 462.433h10.462v8.41H10.456zM83.69 302.678h5.23v-8.41h-5.23zm-62.767 0h5.23v-8.41h-5.23zm26.155-8.404H62.77v8.407H47.078z"/>
    </g>
  </g>
</svg>
